!!!OTL: This Little Light of Mine
!!!COM: unknown
!!!ODT: unknown
!!!YOR: The Treasure Chest
!!!YOY: 1982
!!!AST: Spiritual
!!!YEC: Brian Luke, 2001
**kern	**harm
*k[b-e-a-d-]	*k[b-e-a-d-]
*M2/4	*M2/4
*A-:	*A-:
*>A	*>A
=1	=1
8e-	I
16e-	.
16e-	.
8e-	.
8f	.
=2	=2
2a-	.
=3	=3
8cc	.
16cc	.
16cc	.
8cc	V7
8b-	.
=4	=4
2a-	I
.	V7/IV
=5	=5
8f	IV
16f	.
16f	.
8f	.
8g	.
=6	=6
2a-	.
=7	=7
8a-	.
16a-	.
16a-	.
8a-	.
8f	.
=8	=8
2e-	I
*>A'	*>A'
=9	=9
8e-	I
16e-	.
16e-	.
8e-	.
8f	.
=10	=10
2a-	.
=11	=11
8cc	.
16cc	.
16cc	.
8cc	.
8b-	viio/vi
=12	=12
4a-	vi
8a-	.
8b-	.
=13	=13
4cc	I
8cc	.
8a-	.
=14	=14
4b-	V7
8b-	.
8g	.
=15	=15
[2a-	I;
=16	=16
2a-]	.
*-	*-
